!!!!SEGMENT: pl-sa--369-a-viii-9--002_anonim--wesolla-nowine.krn
!!!cenid: 17xx:1451
!!!COM: Anonim
!!!COM-rismID:
!!!CDT:
!!!CNT:
!!!OTL: Wesołą nowinę
!!!PDT:
!!!AGN:
!!!SMS-siglum: PL-SA
!!!SMS-shelfmark: 369/A VIII 9
!!!SMS-shelfwork: 002 W
!!!SMS-variant:
!!!SMS-altvar:
!!!NIFC-rismSourceID: 1001041686
!!!NIFC-islandoraID:
!!!URL-pdf-islandora:
!!!URL-scan: https://bc.bdsandomierz.pl/dlibra/publication/1673/edition/1641/content @EN{Scan on Cyfrowa Biblioteka Diecezjalna w Sandomierzu} @PL{Skany w portalu Cyfrowa Biblioteka Diecezjalna w Sandomierzu}
!!!ONB-nifc: UWAGA: utwory w zbiorze: 1. Koniec utrapienia narodu ludzkiego, 2. Wesołą nowinę dziś ogłaszamy
!!!AIN: 1 vox
!!!key: G
**kern	**text	**text	**text	**text	**text	**text	**text	**text	**text	**text	**text	**text
*I"[Voce]	*	*	*	*	*	*	*	*	*	*	*	*
*I'[V]	*	*	*	*	*	*	*	*	*	*	*	*
*Ivox	*	*	*	*	*	*	*	*	*	*	*	*
*ICvox	*	*	*	*	*	*	*	*	*	*	*	*
*clefC1	*	*	*	*	*	*	*	*	*	*	*	*
*k[f#]	*	*	*	*	*	*	*	*	*	*	*	*
*G:	*	*	*	*	*	*	*	*	*	*	*	*
*M3/4	*	*	*	*	*	*	*	*	*	*	*	*
=1	=1	=1	=1	=1	=1	=1	=1	=1	=1	=1	=1	=1
*2\right	*v:1	*	*v:2	*	*v:3	*	*v:4	*	*v:5	*	*v:6	*
4g\	We-	Bo	Zlę -	Ra-	A-	Wi-	Az	Wtym	Gdy	Dzie-	Chwa-	Za
(8b\L	-ſo-	ſło-	-kli	-dząc	-le	-ta-	ſię	Ma-	ſię	-ciąt-	-ła	to
8g\J)	.	.	.	.	.	.	.	.	.	.	.	.
(8cc\L	-łą	-wo	ſię	ſię	wnet	-li	tey	-ciek	tak	-ku	częsc	ze
8a\J)	.	.	.	.	.	.	.	.	.	.	.	.
=2	=2	=2	=2	=2	=2	=2	=2	=2	=2	=2	=2	=2
4dd\	no-	Przed-	Paſ-	co-	po-	Je-	o-	przy-	tań-	ſię	niech	na-
(8b\L	-wi-	-wiecz-	-te-	-by	-wſta-	-zu-	-cho-	-pią-	-cu-	tez	bę-	-wie-
8g\J)	.	.	.	.	.	.	.	.	.	.	.	.
(8cc\L	-nę	-ne	-rze	to	-li	-ſa	-cie	-wſzy	-iąc	juz	-dzie	-dził
8a\J)	.	.	.	.	.	.	.	.	.	.	.	.
=3	=3	=3	=3	=3	=3	=3	=3	=3	=3	=3	=3	=3
4b\	dzis	z nie-	te-	ta-	gdy	na-	dzie-	du-	roz-	lu-	Bo-	ſtwo-
(8a\L	o-	-ba	-go	-ko-	ſię	-ro-	-ci-	-dy	-o-	-lu	-gu	-rze-
8g\J)	.	.	.	.	.	.	.	.	.	.	.	.
(8f#/L	-gła-	ze-	cha-	-we	po-	-dzo-	-na	wiel-	-cho-	za-	na-	-nie
8g/J)	.	.	.	.	.	.	.	.	.	.	.	.
=4	=4	=4	=4	=4	=4	=4	=4	=4	=4	=4	=4	=4
4a\	-ſza-	-ſła-	-ła-	by-	-ſtrze-	-ne-	ſmia-	-ko-	-ći-	-chcia-	-ſze-	ſwo-
2d/	-my,	-ne.	-su	-ło?,	-gli,	-go,	-ła,	-ſne,	-li,	-ło,	-mu,	-ie,
=5	=5	=5	=5	=5	=5	=5	=5	=5	=5	=5	=5	=5
4g\	z ra-	W be-	zbie-	i	do	na	na	grał	ca-	o-	z Ma-	o-
(8b\L	-do-	-tle-	-gac	ze	ſzo-	ſian-	dud-	na	-lut-	-cząt-	-ry-	-pu-
8g\J)	.	.	.	.	.	.	.	.	.	.	.	.
(8cc#X\L	-sci	-jem	ſię	się	-py	-ku	-ki	nich	-ką	-ka	-i	-scił
8a\J)	.	.	.	.	.	.	.	.	.	.	.	.
=6	=6	=6	=6	=6	=6	=6	=6	=6	=6	=6	=6	=6
4dd\	serc	w pie-	po-	iak	czym	we	pa-	pio-	szo-	ma-	Dzie-	Nie-
(8ee\L	na-	-luſz-	-czę-	we	prę-	złob-	-lusz-	-ſnecz-	-pi-	-lin-	-wi-	-bie-
8cc#X\J)	.	.	.	.	.	.	.	.	.	.	.	.
4dd\	-ſzych,	-ki,	-li,	dnie	-dzey	-ku	-kiem	-ki	-nę	-kie	-ce	-skie
=7	=7	=7	=7	=7	=7	=7	=7	=7	=7	=7	=7	=7
8gg\	kto-	zkrę-	wſzys-	roz-	wſzys-	zło-	po-	roz-	za-	zmro-	zro-	po-
8ee\	-rą	-po-	-cy	-wi-	-cy	-zo-	-ka-	-ko-	-ku-	.	-dzo-	.
(4dd\	ma-	-wa-	z la-	-dni-	bie-	-ne-	-za-	-szne-	-rzy-	-za-	-ne-	-ko-
4cc#X\)	.	.	.	.	.	.	.	.	.	.	.	.
=8	=8	=8	=8	=8	=8	=8	=8	=8	=8	=8	=8	=8
!LO:SIC:v:s=8qqcc#/	!	!	!	!	!	!	!	!	!	!	!	!
8qqcc/	.	.	.	.	.	.	.	.	.	.	.	.
2.dd\	-my,	-ne,	-su,	-ło,	-gli,	-go,	-ła,	-ne,	-li,	-ło,	-mu,	-je.
=9:|!|:	=9:|!|:	=9:|!|:	=9:|!|:	=9:|!|:	=9:|!|:	=9:|!|:	=9:|!|:	=9:|!|:	=9:|!|:	=9:|!|:	=9:|!|:	=9:|!|:
4gg\	.	A-	.	Ie-	.	Da-	.	Ie-	.	Io-	.	By-
4dd\	.	-niel-	.	-dni	.	-li	.	-dni	.	-zef	.	-le
4b\	.	-skie	.	się	.	mu	.	tan-	.	do	.	nas
=10	=10	=10	=10	=10	=10	=10	=10	=10	=10	=10	=10	=10
4ccn\	.	ię-	.	zlę-	.	o-	.	-co-	.	ba-	.	po-
(8ee\L	.	-zy-	.	-kną-	.	-fia-	.	-wa-	.	-to-	.	-zy-
8cc\J)	.	.	.	.	.	.	.	.	.	.	.	.
4a\	.	-ki	.	-wſzy	.	-ry	.	-li	.	-ga	.	-skał
!!linebreak:original
=11	=11	=11	=11	=11	=11	=11	=11	=11	=11	=11	=11	=11
*	*	*v:1	*	*v:2	*	*v:3	*	*v:4	*	*v:5	*	*v:6
(8b\L	.	roz-	.	dru-	.	a	.	w pod-	.	ſko-	.	kto-
8dd\J)	.	.	.	.	.	.	.	.	.	.	.	.
(8cc\L	.	-ne-	.	-dzy	.	dru-	.	-kow-	.	-czył.-	.	-rych
8b\J)	.	.	.	.	.	.	.	.	.	.	.	.
(8a\L	.	-mi	.	po-	.	-dzy	.	-ki	.	-my	.	grzech
8g\J)	.	.	.	.	.	.	.	.	.	.	.	.
=12	=12	=12	=12	=12	=12	=12	=12	=12	=12	=12	=12	=12
8qqg/	.	.	.	.	.	.	.	.	.	.	.	.
4f#/	.	o-	.	-klę-	.	bez	.	krze-	.	dla	.	przy-
(8a/L	.	-krzy-	.	-kną-	.	mia-	.	-ſza-	.	Bo-	.	-ciſ-
8f#/J)	.	.	.	.	.	.	.	.	.	.	.	.
4d/	.	-ki,	.	-wſzy,	.	-ry,	.	-li,	.	-ga,	.	-kał,
=13	=13	=13	=13	=13	=13	=13	=13	=13	=13	=13	=13	=13
4g\	.	Wo-	.	Krzy-	.	Plą-	.	A	.	Czym	.	Za
(8b\L	.	-ła-	.	-cze-	.	-ſa-	.	dru-	.	prę-	.	co
8g\J)	.	.	.	.	.	.	.	.	.	.	.	.
(8cc\L	.	-ią	.	-li	.	-li	.	-dzy	.	-dzey	.	Bog
8a\J)	.	.	.	.	.	.	.	.	.	.	.	.
=14	=14	=14	=14	=14	=14	=14	=14	=14	=14	=14	=14	=14
2dd\	.	da-	.	gwał-	.	choc	.	cho-	.	w no-	.	ſwię-
(8b\L	.	-ley	.	-tu	.	choc	.	-la	.	-gi	.	-ty
8g\J)	.	.	.	.	.	.	.	.	.	.	.	.
=15	=15	=15	=15	=15	=15	=15	=15	=15	=15	=15	=15	=15
2dd\	.	da-	.	gwał-	.	choc	.	cho-	.	w no-	.	ſwię-
(8b\L	.	-ley	.	-tu	.	choc	.	-la	.	-gi	.	-ty
8g\J)	.	.	.	.	.	.	.	.	.	.	.	.
=16	=16	=16	=16	=16	=16	=16	=16	=16	=16	=16	=16	=16
4a\	.	do	.	ſwiat	.	ma-	.	ſpie-	.	z Be-	.	na
(8a\L	.	Szo-	.	go-	.	-zur-	.	-wa-	.	-tle-	.	Wie-
8g\	.	.	.	.	.	.	.	.	.	.	.	.
8a\	.	.	.	.	.	.	.	.	.	.	.	.
8b\J)	.	.	.	.	.	.	.	.	.	.	.	.
=17	=17	=17	=17	=17	=17	=17	=17	=17	=17	=17	=17	=17
2.g/	.	-py.	.	-re.	.	-ka.	.	-li	.	-jem.	.	-ki
=:|!;<	=:|!	=:|!	=:|!	=:|!	=:|!	=:|!	=:|!	=:|!	=:|!	=:|!	=:|!	=:|!
*-	*-	*-	*-	*-	*-	*-	*-	*-	*-	*-	*-	*-
!!!system-decoration: [(s1)]
!!!RDF**kern: > = above
!!!RDF**kern: < = below
!!!ENC: Katarzyna Serwa
!!!END: 2021-12-30
!!!ENC: Katarzyna Serwa
!!!END: 2020-12-04
